dist/img/icon-popup-result.svg

<svg width="100" height="100" viewBox="0 0 100 100" fill="none" xmlns="http://www.w3.org/2000/svg">
<circle cx="50" cy="50" r="50" fill="#F4F5F6"/>
<path fill-rule="evenodd" clip-rule="evenodd" d="M50 29.0444C38.4448 29.0444 29.0444 38.4458 29.0444 50C29.0444 61.5562 38.4448 70.9556 50 70.9556C61.5552 70.9556 70.9556 61.5552 70.9556 50C70.9556 38.4468 61.5552 29.0444 50 29.0444ZM50 73C37.3183 73 27 62.6827 27 50C27 37.3173 37.3183 27 50 27C62.6827 27 73 37.3173 73 50C73 62.6827 62.6827 73 50 73Z" fill="#393939"/>
<path d="M57.8251 44.71C58.0254 44.5217 58.2922 44.4206 58.567 44.4291C58.8417 44.4375 59.1018 44.5548 59.2901 44.755C59.4784 44.9552 59.5795 45.2221 59.571 45.4968C59.5626 45.7715 59.4454 46.0317 59.2451 46.22L48.2741 56.54L42.7541 51.349C42.655 51.2558 42.5752 51.1439 42.5193 51.0198C42.4633 50.8957 42.4324 50.7618 42.4282 50.6258C42.424 50.4898 42.4467 50.3542 42.4949 50.227C42.5431 50.0997 42.6159 49.9831 42.7091 49.884C42.8024 49.7848 42.9142 49.705 43.0383 49.6491C43.1624 49.5932 43.2963 49.5623 43.4323 49.5581C43.5684 49.5539 43.7039 49.5766 43.8312 49.6248C43.9584 49.673 44.075 49.7458 44.1741 49.839L48.2731 53.694L57.8251 44.71Z" fill="#83C150"/>
</svg>

<svg width="100" height="100" fill="none" xmlns="http://www.w3.org/2000/svg"><circle cx="50" cy="50" r="50" fill="#F4F5F6"/><path fill-rule="evenodd" clip-rule="evenodd" d="M50 29.044c-11.555 0-20.956 9.402-20.956 20.956 0 11.556 9.4 20.956 20.956 20.956 11.555 0 20.956-9.4 20.956-20.956 0-11.553-9.4-20.956-20.956-20.956zM50 73c-12.682 0-23-10.317-23-23s10.318-23 23-23c12.683 0 23 10.317 23 23S62.683 73 50 73z" fill="#393939"/><path d="M57.825 44.71a1.036 1.036 0 111.42 1.51l-10.97 10.32-5.52-5.191a1.036 1.036 0 011.42-1.51l4.098 3.855 9.552-8.984z" fill="#83C150"/></svg>
